X:1
T:University
Z:Jack Campin: "Embro, Embro", transcription (c) 2001
F:15kirk/abc/Uni.abc
S:Sacred Harmony for the use of St George's Church Edinburgh, 1820
N:one of the tunes used for Two Brothers?
M:2/4
L:1/8
Q:1/4=80
K:D
A|(GF) (ED)|   d2 (ef)|A2  G2 |F3||A|(FD) (BA)|G2 F2|E3||
A| d2   d2 |{c}B2 (AF)|D2 (EF)|G3||A|(Bd) (AB)|F2 E2|D3|]

